X:1
T: General Stuart's Reel
T: 8x32R 3C (RSCDS Bk 10)
P: The Stewarts' Rant
C: from Barbara McOwen
C: arr. T. Traub 3-31-2005
R: Reel
M: 4/4
L: 1/8
%
K: A
e2|"A"c/d/e f/g/a e2 ce|"Bm"dBfB "E7"bBfB|"A"c/d/e f/g/a e2 ce|"E7"dBge "A"a2 e2|"A"c/d/e f/g/a e2 ce|"Bm"dBfB "E7"bBdB|
"A"cefa efce|"E7"defg "A"a2 || e2 |"A"cA A/A/A cAcA|"E7"BE E/E/E BEBd|"A"cA A/A/A cAcA|"E7"BE E/E/E e2 Ae|
"A"cAeA "D"fAeA|"E7"GEBE GABd|"A"cAeA "D"aAeA|1"E7"defg "A"a2 |2 "A"cAeA "F#m"aAbA|"D"c'ad'c' "E7"b2 |]
